X:1
T:5 Songs from the Chinese Poets, 1st Series
T:The Ghost Road
T:To my Friend Alvin Langdon Coburn 
T:Five Songs from the Chinese Poets, 1st Series
T:Granville Bantock
T:2. The Ghost Road
T:Launcelot Cranmer-Byng after Fu Du 
T:Creative Commons copyright waiver (CC0 1.0 Universal)
T:Creative Commons copyright waiver (CC0 1.0 Universal)
T:Creative Commons copyright waiver (CC0 1.0 Universal)
T:Creative Commons copyright waiver (CC0 1.0 Universal)
T:Creative Commons copyright waiver (CC0 1.0 Universal)
T:Creative Commons copyright waiver (CC0 1.0 Universal)
T:Creative Commons copyright waiver (CC0 1.0 Universal)
T:Creative Commons copyright waiver (CC0 1.0 Universal)
C:Granville Bantock
Z:Fu Du
Z:Creative Commons copyright waiver (CC0 1.0 Universal)
%%score 1 { 2 | 3 }
L:1/8
M:4/4
K:C
V:1 treble nm="Voice"
V:2 treble nm="Piano"
V:3 bass 
V:1
 z8 | z8 | z8 | z8 | z8 | z8 | z8 | z8 | z8 | z A A2- (3A A A z2 | z2 z2 z A A A | %11
w: |||||||||The winds _ and the|The ri- ver|
w: |||||||||Le vent _ et les|La re- viè-|
"^Note to transcriber:\nFor the French lyrics we follow the standard\nof starting a new system with a dash when the\nword starts on the previous system.\n" (3F F F z2 z4 | %12
w: girds in its|
w: \- re se *|
 z8 | ^G2- G z z4 | z8 | z8 || !fermata!z8 | z8 | z G z2 z4 | z8 | z8 | z ^G z2 z4 | z4 z ^C C C | %23
w: |tiles _|||||What|||Who|Who left be-|
w: ||||||Quel|||Qui||
"^Not to transcriber:\nFor English lyrics we follow the IMSLP\nversion's method of hyphenating words\nthat continue on the next system\n" ^C z z2 z4 | %24
w: \-neath|
w: qui|
 z8 | z8 ||"^." z8 | z8 | z8 | z B z2 z4 | z8 | z8 | z2 (3^F z z z4 | z8 | z8 | z2 z E z4 | z8 | %37
w: |||||Like|||Down|||and||
w: |||||Je|||Et,|||des||
 z8 || z2 E2 z4 | z8 | z8 | z8 | z z (3_B B z z4 | z8 | z z z z e4- | e3 E E4- | E z z2 z4 | z8 || %48
w: |The||||And the||a-|\- - va- tar.|_||
w: |Le||||Et le||d'or|_ des feuilles.|_||
 z A z2 z4 | z8 | z8 | e8- | e z z2 z4 | z8 | E8- | E z z2 z4 | z8 | z27 | z2 E2 z4 | z8 | =F8- | %61
w: The|||years;|_||song,|_|||But||tears,|
w: Sur|||hommes;|_||pas,|_|||Mais||pleurs,|
 F z z2 z4 | [Cc]6 [B,B]2 || [A,A]8- | [A,A] z z2 z4 | z8 | z8 | z8 | z8 | z8 | z8 |] %71
w: _||tears.|_|||||||
w: _||pleurs.|_|||||||
V:2
 z8 | z8 | z8 | z8 | z8 | z8 | z8 | z8 | z8 | z8 | z8 | z8 | z8 | z8 | z8 | z8 || z8 | z8 | z8 | %19
 z8 | z8 | z8 | z8 | z8 | z8 | z8 || z8 | z8 | z8 | z8 | z8 | z8 | z8 | z8 | z8 | z8 | z8 | z8 || %38
 z8 | z8 | z8 | z8 | z8 | z8 | z8 | z8 | z8 | z8 || z8 | z8 | z8 | z8 | z8 | z8 | z8 | z8 | z8 | %57
"^Cadenza entered by mike320" !^![G_B^ce]8- x16 x3 | x z z2 z4 | z8 | z8 | z8 | z8 || z8 | z8 | %65
 z8 | z8 | z4[K:bass] z4 | z8 | z8 | z8 |] %71
V:3
 z8 | z8 | z8 | z8 | z8 | z8 | z8 | z8 | z8 | z8 | z8 | z8 | z8 | z8 | z4[K:treble] z4 | z8 || %16
[K:bass] z8 | z8 | z8 | z8 | z8 | z8 | z8 | z8 | z8 | z8 || z8 | z8 | z8 | z8 | %30
 z2[K:treble] z2 z4 | z8 | z2[K:bass] z2 z4 | z4[K:treble] z4 | z2[K:bass] z2 z4 | z8 | z8 | z8 || %38
 z8 | z8 | z8 | z8 | z8 | z8 | z8 | z8 | z8 | z8 || z8 | z8 | z8 | z8 | z8 | z8 | z8 | z8 | z8 | %57
 [_B,,_B,] z _B,,,2- (B,,,^C,,E,,G,,_B,,^C,E,G,[K:treble]_B,^CE!<(![I:staff -1]G_B^ceg_b^c'e'!8va(!g'a'd''e''!<)! | %58
[I:staff +1][K:bass][I:staff -1]g'')!8va)![I:staff +1] x7 | z8 | z8 | z8 | z8 || z8 | z8 | z8 | %66
 z8 | z8 | z8 | z8 | z8 |] %71

